X:1
T:Tormaid a bh'air a Ghille
L:1/8
M:4/4
I:linebreak $
K:D
V:1 treble 
V:1
 e | gage fdde | gage aeef | gage de g2 | eage fdde | gage fdde |$ gage aeef | gage de g2 | %8
 eage fdgd || B<BGB dBgd | BdGd BAAd |$ B<BGB dB g2 | eage fdgd | B<BGB dBgd | BdGd BAAd | %15
 B<BGB dB g2 |$ eage fdd || %17
